X:233
T:The Lads of Laois
M:4/4
L:1/8
R:reel
N:Learned from The Northern Fiddler, which calls it `Untitled'.
N:Kira and I follow this one with Doctor Gibert
K:Edor
G|EB,~B,2 E2FE|DA,~A,2 DEFD|GEED EFGA|B2ec dBAF|
EB,~B,2 E2FE|DA,~A,2 DEFD|Eeed BcdA|(3Bcd ec BFAF|
EB,~B,2 E2FE|DA,~A,2 DEFD|GEED EFGA|Bbec dBAF|
E2B,E GB,EG|D2A,D FA,DF|~E2BE dEBE|(3ABA FA BEE2||
eB~B2 egfe|defa gfed|Bdef gfge|fgaf gfed|
ebed BAFA|BE~E2 BAFA|(3Bcd ef gefd|gbfb edBd|
eB~B2 egfe|defa gfed|Bdef g2ge|fgaf gfed|
eB~B2 GBFB|Eeed egfa|gbgb fafa|egfd eGFD||

